public/icons/photoIcon.svg

<svg width="40" height="40" fill="none" xmlns="http://www.w3.org/2000/svg"><path fill-rule="evenodd" clip-rule="evenodd" d="M35.5 10.4V10c0-1.7-1.3-3-3-3s-3 1.3-3 3h-2.8l-.4-1.2C25.7 7.1 24 6 22.2 6h-4.5c-1.8 0-3.4 1.1-4.1 2.8l-.4 1.2H6c-1.7 0-3 1.3-3 3v17c0 1.7 1.3 3 3 3h28c1.7 0 3-1.3 3-3V13c0-1.1-.6-2.1-1.5-2.6Zm-4-.4c0-.6.4-1 1-1s1 .4 1 1v1h-2v-1Zm-9.3-2h-4.5c-1 0-1.9.6-2.2 1.5L15 11h10l-.6-1.5C24 8.6 23.2 8 22.2 8ZM35 30c0 .6-.4 1-1 1H6c-.6 0-1-.4-1-1V13c0-.6.4-1 1-1h28.1s.1 0 .1.1c.4.1.7.5.7 1V30h.1Zm-22.1-9c0-3.9 3.2-7.1 7.1-7.1 3.9 0 7.1 3.2 7.1 7.1 0 3.9-3.2 7.1-7.1 7.1-3.9 0-7.1-3.2-7.1-7.1Zm7.1 6.1c-3.3 0-6.1-2.7-6.1-6.1 0-3.4 2.7-6.1 6.1-6.1 3.4 0 6.1 2.7 6.1 6.1 0 3.4-2.8 6.1-6.1 6.1ZM17 21c0-1.7 1.3-3 3-3s3 1.3 3 3-1.3 3-3 3-3-1.3-3-3Zm3 2c-1.1 0-2-.9-2-2s.9-2 2-2 2 .9 2 2-.9 2-2 2Zm11 5c.6 0 1-.4 1-1s-.4-1-1-1-1 .4-1 1 .4 1 1 1ZM10.5 14h-2c-.8 0-1.5.7-1.5 1.5v1c0 .8.7 1.5 1.5 1.5h2c.8 0 1.5-.7 1.5-1.5v-1c0-.8-.7-1.5-1.5-1.5Zm0 3c.3 0 .5-.2.5-.5v-1c0-.3-.2-.5-.5-.5h-2c-.3 0-.5.2-.5.5v1c0 .3.2.5.5.5h2Z" fill="#48CCFD"/></svg>

<svg width="40" height="40" viewBox="0 0 40 40" fill="none" xmlns="http://www.w3.org/2000/svg">
<path fill-rule="evenodd" clip-rule="evenodd" d="M35.5 10.4V10C35.5 8.3 34.2 7 32.5 7C30.8 7 29.5 8.3 29.5 10H26.7L26.3 8.8C25.7 7.1 24 6 22.2 6H17.7C15.9 6 14.3 7.1 13.6 8.8L13.2 10H6C4.3 10 3 11.3 3 13V30C3 31.7 4.3 33 6 33H34C35.7 33 37 31.7 37 30V13C37 11.9 36.4 10.9 35.5 10.4ZM31.5 10C31.5 9.4 31.9 9 32.5 9C33.1 9 33.5 9.4 33.5 10V11H31.5V10ZM22.2 8H17.7C16.7 8 15.8 8.6 15.5 9.5L15 11H25L24.4 9.5C24 8.6 23.2 8 22.2 8ZM35 30C35 30.6 34.6 31 34 31H6C5.4 31 5 30.6 5 30V13C5 12.4 5.4 12 6 12H13.5H13.9H26H26.5H29.5H30.5H34H34.1C34.1 12 34.2 12 34.2 12.1C34.6 12.2 34.9 12.6 34.9 13.1V30H35ZM12.9 21C12.9 17.1 16.1 13.9 20 13.9C23.9 13.9 27.1 17.1 27.1 21C27.1 24.9 23.9 28.1 20 28.1C16.1 28.1 12.9 24.9 12.9 21ZM20 27.1C16.7 27.1 13.9 24.4 13.9 21C13.9 17.6 16.6 14.9 20 14.9C23.4 14.9 26.1 17.6 26.1 21C26.1 24.4 23.3 27.1 20 27.1ZM17 21C17 19.3 18.3 18 20 18C21.7 18 23 19.3 23 21C23 22.7 21.7 24 20 24C18.3 24 17 22.7 17 21ZM20 23C18.9 23 18 22.1 18 21C18 19.9 18.9 19 20 19C21.1 19 22 19.9 22 21C22 22.1 21.1 23 20 23ZM31 28C31.6 28 32 27.6 32 27C32 26.4 31.6 26 31 26C30.4 26 30 26.4 30 27C30 27.6 30.4 28 31 28ZM10.5 14H8.5C7.7 14 7 14.7 7 15.5V16.5C7 17.3 7.7 18 8.5 18H10.5C11.3 18 12 17.3 12 16.5V15.5C12 14.7 11.3 14 10.5 14ZM10.5 17C10.8 17 11 16.8 11 16.5V15.5C11 15.2 10.8 15 10.5 15H8.5C8.2 15 8 15.2 8 15.5V16.5C8 16.8 8.2 17 8.5 17H10.5Z" fill="#48CCFD"/>
</svg>
